icons/design-align-right.svg

<svg xmlns="http://www.w3.org/2000/svg" viewBox="0 0 24 24" fill="currentColor">
  <path d="M5.08033 5.08033C4.88991 5.27075 4.75 5.57044 4.75 6v2c0 .68579.56421 1.25 1.25 1.25h9c.6858 0 1.25-.56421 1.25-1.25V6c0-.68579-.5642-1.25-1.25-1.25H6c-.42956 0-.72925.13991-.91967.33033ZM4.01967 4.01967C4.52925 3.51009 5.22956 3.25 6 3.25h9c1.5142 0 2.75 1.23579 2.75 2.75v2c0 1.51421-1.2358 2.75-2.75 2.75H6c-1.51421 0-2.75-1.23579-2.75-2.75V6c0-.77044.26009-1.47075.76967-1.98033ZM9.08033 15.0803c-.19042.1904-.33033.4901-.33033.9197v2c0 .6858.56421 1.25 1.25 1.25h5c.6858 0 1.25-.5642 1.25-1.25v-2c0-.6858-.5642-1.25-1.25-1.25h-5c-.42956 0-.72925.1399-.91967.3303Zm-1.06066-1.0606C8.52925 13.5101 9.22956 13.25 10 13.25h5c1.5142 0 2.75 1.2358 2.75 2.75v2c0 1.5142-1.2358 2.75-2.75 2.75h-5c-1.51421 0-2.75-1.2358-2.75-2.75v-2c0-.7704.26009-1.4707.76967-1.9803ZM20.75 4c0-.41421-.3358-.75-.75-.75s-.75.33579-.75.75v16c0 .4142.3358.75.75.75s.75-.3358.75-.75V4Z"/>
</svg>

<svg width="24" height="24" viewBox="0 0 24 24" fill="none" xmlns="http://www.w3.org/2000/svg">
<path fill-rule="evenodd" clip-rule="evenodd" d="M5.08033 5.08033C4.88991 5.27075 4.75 5.57044 4.75 6V8C4.75 8.68579 5.31421 9.25 6 9.25H15C15.6858 9.25 16.25 8.68579 16.25 8V6C16.25 5.31421 15.6858 4.75 15 4.75H6C5.57044 4.75 5.27075 4.88991 5.08033 5.08033ZM4.01967 4.01967C4.52925 3.51009 5.22956 3.25 6 3.25H15C16.5142 3.25 17.75 4.48579 17.75 6V8C17.75 9.51421 16.5142 10.75 15 10.75H6C4.48579 10.75 3.25 9.51421 3.25 8V6C3.25 5.22956 3.51009 4.52925 4.01967 4.01967ZM9.08033 15.0803C8.88991 15.2707 8.75 15.5704 8.75 16V18C8.75 18.6858 9.31421 19.25 10 19.25H15C15.6858 19.25 16.25 18.6858 16.25 18V16C16.25 15.3142 15.6858 14.75 15 14.75H10C9.57044 14.75 9.27075 14.8899 9.08033 15.0803ZM8.01967 14.0197C8.52925 13.5101 9.22956 13.25 10 13.25H15C16.5142 13.25 17.75 14.4858 17.75 16V18C17.75 19.5142 16.5142 20.75 15 20.75H10C8.48579 20.75 7.25 19.5142 7.25 18V16C7.25 15.2296 7.51009 14.5293 8.01967 14.0197ZM20.75 4C20.75 3.58579 20.4142 3.25 20 3.25C19.5858 3.25 19.25 3.58579 19.25 4V20C19.25 20.4142 19.5858 20.75 20 20.75C20.4142 20.75 20.75 20.4142 20.75 20V4Z" fill="black"/>
</svg>
